X:1
T:Title
%%score { ( 1 5 ) | ( 2 3 4 ) }
L:1/8
M:6/8
K:C
V:1 treble nm="Grand Piano"
V:5 treble 
V:2 bass 
V:3 bass 
V:4 bass 
V:1
 z3 z2[Q:1/4=100] [EG]/[EG]/ | [EG][Ec][DB] [Fd]cE |[M:2/4] G4[K:bass] |[M:1/4] EE | %4
[M:3/4][K:treble] FE F[EG] DD |[M:5/8] [CE]- [CE]3 z |[M:1/8] [G,EG]/[G,EG]/ | %7
[M:3/4] [G,EG][Ec] [DB][Fd] cE |[M:2/4] G4 |[M:1/4] [CEG][CEG] | %10
[M:3/4] [CFA][CAc] [CAc][GB] [Fd][Fd] |[M:5/8] [Ec]- [Ec]3 z |[M:1/8] [Ec]/[Ec]/ | %13
[M:5/8] [Ge][EG][EG] [Ec]2 |[M:1/8] [Ec]/[Ec]/ |[M:5/8] [Ge][EG][EG] [Ec]2 |[M:1/8] [EG]/[EG]/ | %17
[M:3/4] [EG][Ec] [Ec][Ec] [DB][Ec] |[M:5/8] d- d3 z |[M:1/8] B/B/ |[M:5/8] dGG B2 |[M:1/8] B/B/ | %22
[M:5/8] dGG B2 |[M:1/8] G/G/ |[M:3/4] GB BB AB |[M:5/8] [Ec]-[Ec]- [Ec]3 |] %26
V:2
 z3 z2 [C,G,]/[C,G,]/ | z6 |[M:2/4] E4 |[M:1/4] [G,C][G,C] |[M:3/4] [G,D][G,C] .[G,D]2 B,B, | %5
[M:5/8] C,C,C, C, z |[M:1/8] C,/C,/ |[M:3/4] z6 |[M:2/4] E4 |[M:1/4] C,C, |[M:3/4] F,F, F,G, G,G, | %11
[M:5/8] [C,G,]- [C,G,]3 z |[M:1/8] [C,G,]/[C,G,]/ |[M:5/8] [C,C][C,C][C,C] [C,G,]2 | %14
[M:1/8] [C,G,]/[C,G,]/ |[M:5/8] [C,C][C,C][C,C] [C,G,]2 |[M:1/8] [C,G,]/[C,G,]/ | %17
[M:3/4] [C,G,][C,G,] [C,G,][C,G,] [C,G,][C,G,] |[M:5/8][K:treble] [G,B,F]- [G,B,F]3 z | %19
[M:1/8] [G,D]/[G,D]/ |[M:5/8] [G,F][G,F][G,F] [G,D]2 |[M:1/8] [G,D]/[G,D]/ | %22
[M:5/8] [G,F][G,F][G,F] [G,D]2 |[M:1/8] [G,B,F]/[G,B,F]/ | %24
[M:3/4] [G,B,F][G,DF] [G,DF][G,DF] [G,CF][G,F] |[M:5/8][K:bass] [C,G,]-[C,G,]- [C,G,]3 |] %26
V:3
 x6 | [C,G,][C,G,][C,G,] z EC |[M:2/4] z C, C,C, |[M:1/4] x2 |[M:3/4] z2 z G,,3 |[M:5/8] x5 | %6
[M:1/8] x |[M:3/4] C,[C,G,] .[C,G,]2 EC |[M:2/4] z C, C,C, |[M:1/4] x2 |[M:3/4] x6 |[M:5/8] x5 | %12
[M:1/8] x |[M:5/8] x5 |[M:1/8] x |[M:5/8] x5 |[M:1/8] x |[M:3/4] x6 |[M:5/8][K:treble] x5 | %19
[M:1/8] x |[M:5/8] x5 |[M:1/8] x |[M:5/8] x5 |[M:1/8] x |[M:3/4] x6 |[M:5/8][K:bass] x5 |] %26
V:4
 x6 | z3 [C,G,]3- |[M:2/4] [C,G,] z z2 |[M:1/4] x2 |[M:3/4] x6 |[M:5/8] x5 |[M:1/8] x | %7
[M:3/4] z2 z [C,G,]3- |[M:2/4] [C,G,] z z2 |[M:1/4] x2 |[M:3/4] x6 |[M:5/8] x5 |[M:1/8] x | %13
[M:5/8] x5 |[M:1/8] x |[M:5/8] x5 |[M:1/8] x |[M:3/4] x6 |[M:5/8][K:treble] x5 |[M:1/8] x | %20
[M:5/8] x5 |[M:1/8] x |[M:5/8] x5 |[M:1/8] x |[M:3/4] x6 |[M:5/8][K:bass] x5 |] %26
V:5
 x6 | x6 |[M:2/4] z[K:bass] G, G,G, |[M:1/4] x2 |[M:3/4][K:treble] x6 |[M:5/8] x5 |[M:1/8] x | %7
[M:3/4] x6 |[M:2/4] z G, G,G, |[M:1/4] x2 |[M:3/4] x6 |[M:5/8] x5 |[M:1/8] x |[M:5/8] x5 | %14
[M:1/8] x |[M:5/8] x5 |[M:1/8] x |[M:3/4] x6 |[M:5/8] x5 |[M:1/8] x |[M:5/8] x5 |[M:1/8] x | %22
[M:5/8] x5 |[M:1/8] x |[M:3/4] x6 |[M:5/8] x5 |] %26

